X:1
T:Title
%%score { 1 | 2 } 3 4
L:1/8
Q:1/4=90
M:2/4
K:Bb
V:1 treble nm="Grand Piano, Staff"
V:2 treble 
V:3 treble nm="Choir Pad, Staff-1"
V:4 bass nm="Grand Piano, Staff-2"
V:1
 DG AB | cB AG | FG GA | F G2 B, | DG AB | cB AG | FG BA | F G3 | Gd dA | Bc- c/B/A | AB AG | %11
w: By~franca~karolo,~16a~jc. * * *|||||||||||
 GA GG | FD GG- | GF ED | D G2 F | DG G/A/B | c d2 D | A, G3 |] %18
w: |||||||
V:2
 z2 z F | z E z D | z C z B, | A, .G,3 | B,C z E | z[K:treble] D z D | z D z C | z B,3 | z F z F | %9
 z G2 F | ED z2 | CB, z C | z C B,A,- | A,A, z2 | C B,2 D | z E z D | z C2 B, | z G,3 |] %18
V:3
 DG AB | cB AG | FG GA | F G3 | DG AB | cB AG | FG BA | F G3 | Gd dA | Bc- c/B/A | AB AG | GA GG | %12
 FD GG- | GF ED | D G2 F | DG G/A/B | c d2 D- | D G3 |] %18
V:4
 D, G,2 G,- | G, C,2 D,- | D, E,2 D,- | D, G,2 F, | F, E,2 C,- | C, G,2 B,,- | B,, E,2 D,- | %7
 D, G,2 G,, | z B,,2 D,- | D, E,2 F,- | F, B,,2 E,- | E, C,2 A,,- | A,, B,,2 C,- | C, D,2 D,- | %14
 D, E,2 D,- | D, C,2 B,,- | B,, A,,2 D,- | D, G,,3 |] %18

